!!!SOCIAL_FUNCTION: steal-partner dance songs
!!!PDT:	1943
!!!LING_GROUP: Muskogean
!!!LANG: Non-Tone
Specific Region: Oklahoma, California, Mississippi, Louisiana, Texas, Alabama
!!!REG: Southeast
!!!COM: Anon.
!!!OTL: Steal-partner Dance Song (f)
!!!ODT: <1933//
!!!MPN: Lysander Tubby
!!!MLC: Philadelphia, Mississippi, United States of America
!! Song was recorded in January 1933.
!!!AGN: monody
!!!AMT: irregular
!!!RWG: Transcribed pitches, durations, and meters are only approximate.
**kern
*ICvox
*Imale
*clefF4
*k[b-]
*M5/8
*MM72
*[A,B,C,B]
*>A
=1-
4A
(8A~
8G)
8A
=2
4F
4F
8G
*M3/4
=3
8.G
16F
4G
(8G
16F)
16r
*M2/4
=4
(8A
8G)
8.A
16G
=5
4F
4r
=6
8F
[8F
8.F]
16D
=7
8F
8F
4F
*M5/8
=8
8A
8F
[8G
8.G]
16F
*M2/4
=9
4D
4r
=10
8F
[8F
8.F]
16G+
=11
8F
8F
4F
*>B
*M5/8
=12
4c
4A
8G
*M2/4
=13
4F
4r
=14
8G
[8G
8.G]
16F
=15
([4G
8G]
16F)
8r
*M5/8
=16
4A
4G+
8A
*M2/4
=17
4F
4r
=18
8F
[8F
8.F]
16D
=19
8F
8F
4F
*M5/8
=20
8AL
8FJ
[8GL
8.G
16FJ
*M2/4
=21
4D
4r
=22
8F
[8F
8.F]
16G
=23
8F
8F
4F
!! Fine
==24
*>C
4A
8.A
16G
=25
4F
4r
=26
8G
[8G
8.G]
16F
=27
4G
8G
8F
*M5/8
=28
4A
4G+
8A
*M2/4
=29
4F
4r
=30
8F
[8F
8F]
8D
=31
8F
8F
4F
*M5/8
=32
8A
8F
[8G
8.G]
16F
*M2/4
=33
4D
8D
8r
=34
8F
[8F
8.F]
16G+
=35
8F
8F
4F
=:|!
*-
!!!CNT: Choctaw
!!!TXO: Choctaw
!!!OCY: United States
!!!OCL: Frances Densmore
!!!YOR: Frances Densmore, "Choctaw Music"
!!!YOR: Bulletin 136, page 156, No. 38
!!!PPR: Smithsonian Institution, Bureau of American Ethnology
!!!PPR: Government Printing Office
!!!PDT: 1943
!!!PPP: Washington, DC, United States of America
!!!YEC: Electronic Copyright 2000 David Huron
!!!YER: August 2000
!!!YEN: United States of America
!!!ENC: David Huron
!!!RDT: August 28, 2000
!!!EEV: Release 1.0
!!!AIN: vox
